qucs/bitmaps/svg/timing.svg

<?xml version="1.0" encoding="UTF-8" standalone="no"?>
<!-- Created with Inkscape (http://www.inkscape.org/) -->

<svg
   xmlns:dc="http://purl.org/dc/elements/1.1/"
   xmlns:cc="http://creativecommons.org/ns#"
   xmlns:rdf="http://www.w3.org/1999/02/22-rdf-syntax-ns#"
   xmlns:svg="http://www.w3.org/2000/svg"
   xmlns="http://www.w3.org/2000/svg"
   xmlns:sodipodi="http://sodipodi.sourceforge.net/DTD/sodipodi-0.dtd"
   xmlns:inkscape="http://www.inkscape.org/namespaces/inkscape"
   height="128"
   width="128"
   version="1.1"
   id="svg487"
   sodipodi:docname="timing.svg"
   inkscape:version="0.92.3 (2405546, 2018-03-11)">
  <metadata
     id="metadata491">
    <rdf:RDF>
      <cc:Work
         rdf:about="">
        <dc:format>image/svg+xml</dc:format>
        <dc:type
           rdf:resource="http://purl.org/dc/dcmitype/StillImage" />
        <dc:title />
      </cc:Work>
    </rdf:RDF>
  </metadata>
  <sodipodi:namedview
     pagecolor="#ffffff"
     bordercolor="#666666"
     borderopacity="1"
     objecttolerance="10"
     gridtolerance="10"
     guidetolerance="10"
     inkscape:pageopacity="0"
     inkscape:pageshadow="2"
     inkscape:window-width="1920"
     inkscape:window-height="1050"
     id="namedview489"
     showgrid="true"
     inkscape:zoom="4.4138931"
     inkscape:cx="35.01027"
     inkscape:cy="57.31163"
     inkscape:window-x="1920"
     inkscape:window-y="0"
     inkscape:window-maximized="1"
     inkscape:current-layer="svg487">
    <inkscape:grid
       type="xygrid"
       id="grid1504" />
  </sodipodi:namedview>
  <defs
     id="defs24">
    <marker
       inkscape:stockid="Arrow1Lend"
       orient="auto"
       refY="0.0"
       refX="0.0"
       id="Arrow1Lend"
       style="overflow:visible;"
       inkscape:isstock="true">
      <path
         id="path855"
         d="M 0.0,0.0 L 5.0,-5.0 L -12.5,0.0 L 5.0,5.0 L 0.0,0.0 z "
         style="fill-rule:evenodd;stroke:#000000;stroke-width:1pt;stroke-opacity:1;fill:#000000;fill-opacity:1"
         transform="scale(0.8) rotate(180) translate(12.5,0)" />
    </marker>
    <linearGradient
       id="linearGradient7843"
       gradientTransform="matrix(.121457 0 0 .1756605 195.18891 503.66043)"
       gradientUnits="userSpaceOnUse"
       x1="-333.0289"
       x2="-333.0289"
       y1="-1473.6504"
       y2="-776.61371">
      <stop
         offset="0"
         stop-color="#fff"
         id="stop2" />
      <stop
         offset=".49140647"
         stop-color="#fff"
         id="stop4" />
      <stop
         offset="1"
         stop-color="#dcdcdc"
         id="stop6" />
    </linearGradient>
    <linearGradient
       id="linearGradient7912"
       gradientTransform="matrix(.121457 0 0 .1756605 75.745932 148.34634)"
       gradientUnits="userSpaceOnUse"
       x1="399.77466"
       x2="399.77466"
       y1="727.07941"
       y2="480.60214">
      <stop
         offset="0"
         stop-color="#cbcbcd"
         id="stop9" />
      <stop
         offset=".5"
         stop-color="#e0e0e2"
         id="stop11" />
      <stop
         offset="1"
         stop-color="#f2f2f2"
         id="stop13" />
    </linearGradient>
    <linearGradient
       id="linearGradient12912"
       gradientUnits="userSpaceOnUse"
       x1="1055.3002"
       x2="1055.3002"
       y1="-468.66934"
       y2="-481.76657">
      <stop
         offset="0"
         stop-color="#6f6f6f"
         id="stop16" />
      <stop
         offset="1"
         stop-color="#fff"
         id="stop18" />
    </linearGradient>
    <filter
       id="filter4400">
      <feGaussianBlur
         stdDeviation="1.177891"
         id="feGaussianBlur21" />
    </filter>
  </defs>
  <rect
     style="fill:#ffffff;fill-opacity:1;stroke:#ffffff;stroke-width:1.0;stroke-linecap:square;stroke-linejoin:round;stroke-miterlimit:4;stroke-dasharray:none;stroke-dashoffset:0;stroke-opacity:1;paint-order:stroke fill markers"
     id="rect915"
     width="127.0"
     height="127.0"
     x="0.50"
     y="0.50" />
  <path
     style="fill:none;stroke:#000000;stroke-width:0;stroke-linecap:butt;stroke-linejoin:miter;stroke-miterlimit:4;stroke-dasharray:none;stroke-opacity:1"
     d="M 13,89 5,107 23,97"
     id="path884"
     inkscape:connector-curvature="0" />
  <text
     xml:space="preserve"
     style="font-style:normal;font-weight:normal;font-size:37.33333206px;line-height:1.25;font-family:sans-serif;letter-spacing:0px;word-spacing:0px;fill:#000000;fill-opacity:1;stroke:none"
     x="12.750164"
     y="59.039017"
     id="text888"><tspan
       sodipodi:role="line"
       id="tspan886"
       x="12.750164"
       y="59.039017">0 </tspan></text>
  <text
     xml:space="preserve"
     style="font-style:normal;font-weight:normal;font-size:37.33333206px;line-height:1.25;font-family:sans-serif;letter-spacing:0px;word-spacing:0px;fill:#000000;fill-opacity:1;stroke:none"
     x="52.750164"
     y="59.039017"
     id="text888-3"><tspan
       sodipodi:role="line"
       id="tspan886-6"
       x="52.750164"
       y="59.039017">1</tspan></text>
  <text
     xml:space="preserve"
     style="font-style:normal;font-weight:normal;font-size:37.33333206px;line-height:1.25;font-family:sans-serif;letter-spacing:0px;word-spacing:0px;fill:#000000;fill-opacity:1;stroke:none"
     x="94.773445"
     y="59.039017"
     id="text910"><tspan
       sodipodi:role="line"
       id="tspan908"
       x="94.773445"
       y="59.039017">2</tspan></text>
  <rect
     style="fill:none;fill-opacity:1;stroke:#000000;stroke-width:3;stroke-linecap:square;stroke-linejoin:round;stroke-miterlimit:4;stroke-dasharray:none;stroke-dashoffset:0;stroke-opacity:1;paint-order:stroke fill markers"
     id="rect984"
     width="120"
     height="80"
     x="5"
     y="27" />
  <path
     style="fill:none;stroke:#000000;stroke-width:3;stroke-linecap:butt;stroke-linejoin:miter;stroke-miterlimit:4;stroke-dasharray:none;stroke-opacity:1"
     d="M 5,62 H 125"
     id="path986"
     inkscape:connector-curvature="0" />
  <path
     style="fill:none;stroke:#000000;stroke-width:3;stroke-linecap:butt;stroke-linejoin:miter;stroke-miterlimit:4;stroke-dasharray:none;stroke-opacity:1"
     d="M 10,97 H 40 L 60,72 h 35 l 25,25"
     id="path988"
     inkscape:connector-curvature="0" />
  <path
     style="fill:none;stroke:#000000;stroke-width:3;stroke-linecap:butt;stroke-linejoin:miter;stroke-miterlimit:4;stroke-dasharray:none;stroke-opacity:1"
     d="M 10,72 H 40 L 60,97 H 95 L 120,72"
     id="path998"
     inkscape:connector-curvature="0" />
</svg>

<svg xmlns="http://www.w3.org/2000/svg" width="128" height="128"><path d="M.5.5h127v127H.5z" style="fill:#fff;fill-opacity:1;stroke:#fff;stroke-width:1;stroke-linecap:square;stroke-linejoin:round;stroke-miterlimit:4;stroke-dasharray:none;stroke-dashoffset:0;stroke-opacity:1;paint-order:stroke fill markers"/><path d="m13 89-8 18 18-10" style="fill:none;stroke:#000;stroke-width:0;stroke-linecap:butt;stroke-linejoin:miter;stroke-miterlimit:4;stroke-dasharray:none;stroke-opacity:1"/><text xml:space="preserve" x="12.75" y="59.039" style="font-style:normal;font-weight:400;font-size:37.33333206px;line-height:1.25;font-family:sans-serif;letter-spacing:0;word-spacing:0;fill:#000;fill-opacity:1;stroke:none"><tspan x="12.75" y="59.039">0 </tspan></text><text xml:space="preserve" x="52.75" y="59.039" style="font-style:normal;font-weight:400;font-size:37.33333206px;line-height:1.25;font-family:sans-serif;letter-spacing:0;word-spacing:0;fill:#000;fill-opacity:1;stroke:none"><tspan x="52.75" y="59.039">1</tspan></text><text xml:space="preserve" x="94.773" y="59.039" style="font-style:normal;font-weight:400;font-size:37.33333206px;line-height:1.25;font-family:sans-serif;letter-spacing:0;word-spacing:0;fill:#000;fill-opacity:1;stroke:none"><tspan x="94.773" y="59.039">2</tspan></text><path d="M5 27h120v80H5z" style="fill:none;fill-opacity:1;stroke:#000;stroke-width:3;stroke-linecap:square;stroke-linejoin:round;stroke-miterlimit:4;stroke-dasharray:none;stroke-dashoffset:0;stroke-opacity:1;paint-order:stroke fill markers"/><path d="M5 62h120M10 97h30l20-25h35l25 25" style="fill:none;stroke:#000;stroke-width:3;stroke-linecap:butt;stroke-linejoin:miter;stroke-miterlimit:4;stroke-dasharray:none;stroke-opacity:1"/><path d="M10 72h30l20 25h35l25-25" style="fill:none;stroke:#000;stroke-width:3;stroke-linecap:butt;stroke-linejoin:miter;stroke-miterlimit:4;stroke-dasharray:none;stroke-opacity:1"/></svg>
